X:1
T:Title
%%score 1 2 3 4
L:1/8
M:4/2
K:C
V:1 treble nm="Part_1"
V:2 treble nm="Part_2"
V:3 treble-8 nm="Part_3"
V:4 bass nm="Part_4"
V:1
 z16 | z16 | z16 | z16 | z16 | z16 | z16 | z16 | z16 | z16 | z16 | z16 | z16 | z16 | z16 | z16 | %16
 z16 | z16 | z16 | z16 | z16 | z16 | z16 | z16 | z16 | z16 | z16 | z16 | z16 | z16 | z16 | z16 | %32
 z16 | z16 | z16 | z16 | z16 | z16 | z16 | z16 | z16 | z16 | z16 | z16 | z16 | z16 | z16 | z16 | %48
 z16 | z16 | z16 | z16 | z16 | z16 | z16 | z16 | z16 | z16 | z16 | z16 | z16 | z16 | z16 | z16 | %64
 z16 | z16 | z16 | z16 | z16 | z16 | z16 | z16 | z16 | z16 | z16 | z16 | z16 || %77
[K:F][M:4/2][K:treble] z16 | z16 | B12 A4 | B8 c8 | d8 _e8 | d4 B4 (c8 | B12) A4 | (G8 F8) | %85
 (G8 A8) | B8 A8 | (B8 A8) | G8 z8 | (G8 F8) | B8 B8- | B4 c4 d8- | d4 d8 c4 | (B8 A8) | G4 F8 E4 | %95
 D4 E4 D6 E2 | F4 G8 ^F4 | G16 | z8 D8 | D8 F8- | F4 E2 D2 E8 | F8 D8 | E8 F8 | E4 D8 G4- | %104
 G4 F4 G6 F2 | E4 D8 G4- | G2 A2 B4 A4 c4- | c2 B2 A2 G2 F4 E4 | F12 G4- | G4 A4 B8 | c8 B4 A4 | %111
 G4 F4 G4 A4- | A4 F4 G4 c4- | c4 A4 B4 A4- | A4 G2 F2 E6 D2 | F16 | z16 | F8 A8 | B4 G8 F4 | %119
 E4 D4 E8 | C4 E8 D2 C2 | E4 D4 z4 D4 | D4 D4 (D8 | E8) D4 D4 | z8 B8 | c4 d8 c2 B2 | A8 z4 G4- | %127
 G4 F4 E8 | D6 E2 F4 G4 | F4 E4 D6 E2 | F4 G8 F2 E2 | F4 B8 A4 | B16- | B16 | z8 B8 | (B8 A8) | %136
 B8 c8- | c4 B4 A8 | G12 F4 | (G8 B8) | F12 F4 | F8 E8 | D4 G8 F4 | E6 D2 D8 | z4 E4 C4 E4- | %145
 E4 D6 C2 D4- | D4 E4 D4 E4 | F4 G8 ^F4 | G16 ||[M:4/2] B16- | B8 c8 | d16 | _e16 | d8 d8 | d16 | %155
 z8 d8- | d16 | c16 | d16 | G16- | G16 | G16 | G16- | G16 | F16 | B8 B8- | B8 c8 | d16 | d12 c4 | %169
 B8 A8 | B12 A2 G2 | F12 G4- | G2 A2 B2 c2 d6 c2 | B4 A2 G2 F4 G4 | F4 G8 ^F4 | G16- | G16 | G16 | %178
 G16 | G16 | z8 G8 | G8 B8 | B8 G8 | G16 | z8 G8 | F8 G8 | _E8 D4 G4- | G4 _E4 F8 | G4 B8 c2 d2 | %189
 _e4 c4 d2 c2 B2 A2 | G16 | z16 | B8 B8 | c8 d8- | d4 B6 A2 G4 | F8 z4 F4 | B4 c4 d8 | %197
 B4 _e6 d2 c2 B2 | A8 d8- | d4 c2 B2 A8- | A4 G4 F8 | E4 G6 F2 F4- | F4 E2 D2 E8 | F16- | F16 | %205
 F16 | z16 | z16 | z16 | z8 G8 | B6 A2 G4 F4 | (B8 A8) | B6 c2 d8 | _e8 (d8 | c8) B4 A4 | %215
 G4 F4 G4 B4- | B2 F2 B8 A4 | B16 | z16 | (3:2:2B16 B8 | (3:2:2A16 A8 | (3(B8 A8) G8 | %222
 (3(F8 B8) c8 | (3:2:2A16 z8 | (3G12 A4 B8 | (3(F8 A8) G8 | (3(F8 A8) B8 | (3(d8 c8) B8 | %228
 (3(A8 B8) G8 | (3:2:2F16 z8 | (3(F8 A8) B8 | (3(G8 c8) B8 | (3:2:4A8 F4 G8 E4 | %233
 (3:2:6F4 A6 G2 ^F2 E2 F8 | G16- | G16 |] %236
V:2
 z16 | z16 | z16 | z16 | z16 | z16 | z16 | z16 | z16 | z16 | z16 | z16 | z16 | z16 | z16 | z16 | %16
 z16 | z16 | z16 | z16 | z16 | z16 | z16 | z16 | z16 | z16 | z16 | z16 | z16 | z16 | z16 | z16 | %32
 z16 | z16 | z16 | z16 | z16 | z16 | z16 | z16 | z16 | z16 | z16 | z16 | z16 | z16 | z16 | z16 | %48
 z16 | z16 | z16 | z16 | z16 | z16 | z16 | z16 | z16 | z16 | z16 | z16 | z16 | z16 | z16 | z16 | %64
 z16 | z16 | z16 | z16 | z16 | z16 | z16 | z16 | z16 | z16 | z16 | z16 | z16 || %77
[K:F][M:4/2][K:treble-8] B12 A4 | B8 c8 | d16- | d8 e8 | d4 B4 c8 | B8 (A8 | G8) (F8 | G8) (A8 | %85
 B8) A8 | G8 z8 | (G8 F8) | B8 B8- | B4 c4 d8 | d8 d8- | d4 c4 B8- | B4 A2 G2 (A8 | G8) (c8 | %94
 B8) A8 | B4 G4 A8 | A4 G4 A8 | G8 z8 | G8 G8 | (B8 A8) | B8 G8 | z8 G8 | (G8 A8) | G8 (G8 | %104
 A8) G8 | (G8 B8) | (G8 F8) | A12 G4 | (A8 B8) | (c8 G8) | A8 B4 c4- | c4 d4 e4 f4- | f4 e2 d2 e8 | %113
 c8 d4 c4- | c4 B2 A2 (G8 | F8) z8 | F8 (A8 | B8) z8 | (G8 A8) | G12 A4- | A4 G4 G8 | G16 | z8 G8 | %123
 G4 G4 (G8 | A8) G4 G4 | z8 (G8 | F8) (G8 | B8) c8 | B12 A2 G2 | (A8 B8) | A4 B6 c2 d4- | %131
 d4 c2 B2 c8 | B8 z8 | B8 (B8 | A8) B8- | B8 (c8 | B8) A8 | (G8 F8) | (G8 B8) | z8 B8- | B4 B4 B8 | %141
 A16 | B8 c8- | c8 B8 | c16 | (G8 F8) | G6 F2 G8 | A4 G4 A8 | G16 ||[M:4/2] f16 | g16- | g16 | %152
 g16 | f8 f8 | f16 | g16 | f16- | f16 | f16 | d8 _e8- | e16 | _e16 | _e12 B4- | B4 c2 d2 _e4 c4 | %164
 d16 | B8 G8 | g16 | f16 | d4 g8 f4 | g8 c4 f4- | f2 e2 d8 c4 | d8 z4 d4- | d2 c2 d2 e2 f8 | %173
 g4 c4 d4 c4 | d4 e4 d8 | B16 | c16 | (B8 c8) | z8 B8 | B8 _e8 | _e8 c8 | c8 z8 | z16 | _e16- | %184
 e8 c8 | d8 B8 | c8 d8 | c4 _e4 d8 | B16 | c8 z4 d4 | _e12 g4- | g4 ^f2 e2 f8 | g12 f4 | _e8 d8- | %194
 d4 d8 c4 | d16 | g8 f8 | g8 _e8 | d16 | z8 d8 | f8 f8 | g8 c8- | c8 c8 | A16 | z8 d8- | d4 d4 d8 | %206
 _e4 d8 c2 B2 | c8 B8 | _e4 d8 g4- | g4 ^f4 g4 d4- | d2 c2 B4 A8 | G8 z8 | g8 f8 | g4 _e4 f8- | %214
 f16 | z8 z4 f4- | f4 _e4 f8 | d16 | z16 | (3:2:2f16 f8 | (3:2:2f16 f8 | (3:2:2d16 B8 | %222
 (3:2:2d16 c8 | (3:2:2f16 d8 | (3_e16 B4 c4 | (3d8 c8 z8 | f16 | (3:2:2f16 d8 | (3:2:2d16 B8 | %229
 (3:2:2d16 z8 | (3:2:2f16 f8 | (3(_e8 c8) z8 | (3:2:5d4 c4 d8 B6 c2 | (3:2:5d4 e4 d4 e4 d8 | %234
 (3B12 c4 d8- | d16 |] %236
V:3
[K:F] G16 | (F8 G8) | F12 E4 | D12 E4 | F16 | G12 F4 | (G8 F8) | G12 A4 | (B8 A8) | B16 | A16 | %11
 (B8 A8) | (B8 A8) | B4 G4 A8 | G16- | G8 z4 G4- | G4 G4 G4 F4 | G4 F4 E8 | F16 | G12 A4 | %20
 (B8 A8) | (B8 A8) | B4 A4 G8 | z8 A8 | (G8 A8-) | A4 B4 c8 | z4 c8 B4 | G16 | F8 z8 | F8 (A8 | %30
 B12) A4 | G8 G8- | G16 | F8 (G8 | A8) (B8 | c8) B4 A4 | G12 F4 | (B8 A8) | B8 c4 d4- | d4 B8 A4 | %40
 B8 z8 | F8 A8 | B16 | G4 G12 | A8 G8 | z8 G8- | G4 G8 G4 | (G8 A8) | G8 z8 | G8 F8 | G16- | %51
 G8 A8 | (B8 c8) | B8 A8- | A4 G4 A6 B2 | c4 d12 | e4 f4 B4 d4- | d4 B4 c8 | B16 | z16 | (B8 A8) | %61
 (B8 c8) | B4 G4 (F8 | G8) (A8 | G8) B8 | z8 (B8 | A8) G4 B4- | B2 A2 G8 F4 | G4 F2 E2 D8 | %69
 G8 F8- | F4 G4 (A8 | G8) (A8 | B8) (A8 | G8) A4 B4- | B4 A4 G4 F4 | (G8 A8) | G16 || %77
[K:C][M:4/2] z16 | z16 | z16 | z16 | z16 | z16 | z16 | z16 | z16 | z16 | z16 | z16 | z16 | z16 | %91
 z16 | z16 | z16 | z16 | z16 | z16 | z16 | z16 | z16 | z16 | z16 | z16 | z16 | z16 | z16 | z16 | %107
 z16 | z16 | z16 | z16 | z16 | z16 | z16 | z16 | z16 | z16 | z16 | z16 | z16 | z16 | z16 | z16 | %123
 z16 | z16 | z16 | z16 | z16 | z16 | z16 | z16 | z16 | z16 | z16 | z16 | z16 | z16 | z16 | z16 | %139
 z16 | z16 | z16 | z16 | z16 | z16 | z16 | z16 | z16 | z16 ||[K:F][M:4/2][K:treble-8] B16- | B16 | %151
 B16 | B16 | B8 B8 | B16 | B16- | B16 | A16 | B16- | B16 | z8 B8- | B4 B4 B8 | c8 B4 G4- | %163
 G4 A4 B4 G4 | A16 | G16 | z8 (G8 | A12) B4- | B4 G4 A8 | G8 A8 | z8 G8 | A12 B4- | B4 G4 A8 | %173
 G4 A4 B4 G4 | A16 | G16- | G16 | G16 | G16 | G16 | G16 | z8 G8 | G8 B8 | B8 G8 | G8 (G8 | A8) G8 | %186
 G8 (G8 | A8) (A8 | G8) z8 | G16- | G16 | A16 | G8 G8 | (G8 B8) | (B8 G8) | A16 | (G8 A8) | G16 | %198
 (F8 A8) | A12 G4 | (A8 B8) | c12 B2 A2 | G16 | F8 z8 | F8 A8 | B12 G4 | G8 (G8 | A8) G8 | G8 (G8 | %209
 A8) G8 | z16 | G8 F8 | G6 A2 (B8 | c8) (B8 | A8) B4 c4- | c4 d4 _e4 d4- | d4 B4 c8 | B16 | z16 | %219
 (3:2:2B16 B8 | (3c12 B4 A8 | (3G8 F8 G8 | (3(A8 G8) A8 | (3:2:2c16 B8 | (3(c8 B8) G8 | %225
 (3A12 B4 c8 | (3(d8 c8) d8 | (3(B8 A8) G8 | (3:2:2F8 G16 | (3A8 (B8 c8) | (3d8 (c8 d8) | %231
 (3B8 (A8 G8) | (3(A8 B8) G8 | (3:2:2A16 A8 | G16- | G16 |] %236
V:4
[K:F] G,12 F,2 E,2 | (D,8 E,8) | D,6 C,B,, A,,8 | B,,4 F,8 G,4 | A,2 G,2 F,2 E,2 D,8 | _E,12 D,4 | %6
 (_E,8 D,8) | (B,,8 C,8) | D,6 E,2 F,4 D,4- | D,4 G,6 A,2 B,4 | C4 F,6 E,2 D,4- | %11
 D,4 G,,6 A,,2 B,,2 C,2 | D,4 E,4 F,4 D,4- | D,4 G,8 ^F,4 | G,8 z4 C,4- | C,4 C,4 C,4 B,,4 | %16
 C,4 B,,4 G,,4 A,,4 | B,,12 D,4- | D,4 C,2 B,,2 A,,8 | B,,4 C,8 B,,2 A,,2 | G,,4 D,6 E,2 F,4 | %21
 G,8 z4 F,4 | G,4 F,4 B,8 | C4 A,6 G,2 F,4 | E,8 (F,8 | D,8) E,4 F,4- | F,2 G,2 A,6 F,2 B,4- | %27
 B,2 A,2 G,2 F,2 E,8 | D,16 | z16 | B,,8 (D,8 | _E,12) C,4 | C,8 B,,4 C,4- | C,4 D,4 E,8 | %34
 F,8 D,4 E,4- | E,4 F,4 G,4 A,4 | B,12 A,4 | G,8 F,4 D,4- | D,4 C,2 B,,2 A,,4 B,,4- | %39
 B,,4 D,4 C,8 | B,,16 | z16 | B,,8 D,8 | _E,16 | C,4 C,12 | D,8 C,8 | z8 C,8- | C,4 C,8 C,4 | %48
 (C,8 D,8) | C,8 z8 | C,8 G,,4 C,4 | B,,4 C,8 B,,2 A,,2 | (G,,8 A,,8) | B,,8 C,4 D,4- | %54
 D,4 E,4 F,6 G,2 | A,4 B,4 F,4 B,4 | C4 D6 B,2 B,4- | B,4 A,2 G,2 A,8 | B,8 z8 | (B,8 A,8) | %60
 B,8 C8 | B,4 G,4 F,8 | G,8 A,4 D,4 | E,4 G,8 F,4 | B,12 G,4- | G,4 F,2 E,2 D,8- | D,4 C,4 (B,,8 | %67
 G,,8) A,,8 | G,,8 z4 G,,4- | G,,2 A,,2 B,,2 C,2 D,6 C,2 | B,,8 A,,4 C,4- | C,2 D,2 E,4 F,4 C,4 | %72
 D,4 E,4 F,4 C,4- | C,2 D,2 E,4 F,4 D,4 | E,4 F,4 G,4 A,4 | B,4 G,8 ^F,4 | G,16 || %77
[K:C][M:4/2] z16 | z16 | z16 | z16 | z16 | z16 | z16 | z16 | z16 | z16 | z16 | z16 | z16 | z16 | %91
 z16 | z16 | z16 | z16 | z16 | z16 | z16 | z16 | z16 | z16 | z16 | z16 | z16 | z16 | z16 | z16 | %107
 z16 | z16 | z16 | z16 | z16 | z16 | z16 | z16 | z16 | z16 | z16 | z16 | z16 | z16 | z16 | z16 | %123
 z16 | z16 | z16 | z16 | z16 | z16 | z16 | z16 | z16 | z16 | z16 | z16 | z16 | z16 | z16 | z16 | %139
 z16 | z16 | z16 | z16 | z16 | z16 | z16 | z16 | z16 | z16 ||[K:F][M:4/2][K:bass] B,16 | G,16- | %151
 G,16 | _E,16 | B,,8 B,,8 | B,,16 | G,,12 A,,4 | B,,4 C,4 D,4 E,4 | F,16 | B,,16 | z8 _E,8- | %160
 E,8 _E,8 | _E,16- | E,16 | _E,16 | D,16 | _E,16- | E,16 | D,16 | z8 D,8 | (_E,8 F,8) | %170
 (D,8 _E,8) | D,16 | z8 D,8 | E,4 F,4 D,4 E,4 | D,4 C,4 D,8 | _E,16 | C,16 | z8 C,8 | C,8 _E,8 | %179
 _E,8 C,8 | C,16- | C,8 z8 | _E,16 | _E,8 E,8 | (C,8 _E,8) | D,8 (_E,8 | C,8) (B,,8 | C,8) (D,8 | %188
 _E,12) D,4 | (C,8 B,,8) | (C,8 _E,8) | D,16 | _E,12 D,4 | C,8 B,,8 | (D,8 _E,8) | D,16 | %196
 (_E,8 D,8) | (_E,8 C,8) | D,16- | D,16 | D,16 | C,16- | C,16 | D,16- | D,16 | B,,16 | z16 | z16 | %208
 z16 | z16 | (B,,8 D,8) | (_E,8 F,8) | _E,8 (D,8 | C,8) D,4 _E,4 | F,8 B,,4 F,4 | %215
 _E,4 D,4 C,4 B,,4 | B,4 G,4 F,8 | B,,16 | z16 | B,,16 | (3:2:2F,16 F,8 | (3(G,8 D,8) _E,8 | %222
 (3(D,8 G,,8) z8 | (3:2:2F,16 G,8 | (3:2:2C,8 _E,16 | (3(D,8 F,8) _E,8 | (3(D,8 F,8) B,,8 | %227
 (3(B,,8 F,8) G,8 | (3(D,8 G,,8) _E,8 | (3:2:2D,16 C,8 | (3(B,,8 F,8) B,,8 | (3(_E,8 F,8) G,8 | %232
 (3:2:4D,4 F,4 B,,8 _E,8 | (3:2:5D,4 C,4 D,4 C,4 D,8 | G,,16- | G,,16 |] %236

